svgs/thin/abacus.svg

<svg xmlns="http://www.w3.org/2000/svg" viewBox="0 0 576 512"><!-- Font Awesome Pro 6.0.0-alpha2 by @fontawesome - https://fontawesome.com License - https://fontawesome.com/license (Commercial License) --><path d="M512 32.001H64C28.654 32.001 0 60.653 0 96.001V416.001C0 451.346 28.654 480.001 64 480.001H512C547.348 480.001 576 451.346 576 416.001V96.001C576 60.653 547.348 32.001 512 32.001ZM424 48.001V96.001H416C398.327 96.001 384 110.328 384 128.001V128.001C384 145.674 398.327 160.001 416 160.001H424V200.001H280V160.001H288C305.673 160.001 320 145.674 320 128.001V128.001C320 110.328 305.673 96.001 288 96.001H280V48.001H424ZM464 128.001V128.001C464 136.837 456.837 144.001 448 144.001H416C407.163 144.001 400 136.837 400 128.001V128.001C400 119.164 407.163 112.001 416 112.001H448C456.837 112.001 464 119.164 464 128.001ZM240 128.001V128.001C240 119.164 247.163 112.001 256 112.001H288C296.837 112.001 304 119.164 304 128.001V128.001C304 136.837 296.837 144.001 288 144.001H256C247.163 144.001 240 136.837 240 128.001ZM264 48.001V96.001H256C238.327 96.001 224 110.328 224 128.001V128.001C224 145.674 238.327 160.001 256 160.001H264V200.001H152V160.001H160C177.673 160.001 192 145.674 192 128.001V128.001C192 110.328 177.673 96.001 160 96.001H152V48.001H264ZM112 128.001V128.001C112 119.164 119.163 112.001 128 112.001H160C168.837 112.001 176 119.164 176 128.001V128.001C176 136.837 168.837 144.001 160 144.001H128C119.163 144.001 112 136.837 112 128.001ZM16 96.001C16 69.491 37.49 48.001 64 48.001H136V96.001H128C110.327 96.001 96 110.328 96 128.001V128.001C96 145.674 110.327 160.001 128 160.001H136V200.001H16V96.001ZM64 464.001C37.49 464.001 16 442.51 16 416.001V216.001H136V256.001H128C110.327 256.001 96 270.328 96 288.001V288.001C96 305.674 110.327 320.001 128 320.001H136V352.001H128C110.327 352.001 96 366.328 96 384.001V384.001C96 401.674 110.327 416.001 128 416.001H136V464.001H64ZM176 288.001V288.001C176 296.837 168.837 304.001 160 304.001H128C119.163 304.001 112 296.837 112 288.001V288.001C112 279.164 119.163 272.001 128 272.001H160C168.837 272.001 176 279.164 176 288.001ZM176 384.001V384.001C176 392.837 168.837 400.001 160 400.001H128C119.163 400.001 112 392.837 112 384.001V384.001C112 375.164 119.163 368.001 128 368.001H160C168.837 368.001 176 375.164 176 384.001ZM152 464.001V416.001H160C177.673 416.001 192 401.674 192 384.001V384.001C192 366.328 177.673 352.001 160 352.001H152V320.001H160C177.673 320.001 192 305.674 192 288.001V288.001C192 270.328 177.673 256.001 160 256.001H152V216.001H264V256.001H256C238.327 256.001 224 270.328 224 288.001V288.001C224 305.674 238.327 320.001 256 320.001H264V352.001H256C238.327 352.001 224 366.328 224 384.001V384.001C224 401.674 238.327 416.001 256 416.001H264V464.001H152ZM304 288.001V288.001C304 296.837 296.837 304.001 288 304.001H256C247.163 304.001 240 296.837 240 288.001V288.001C240 279.164 247.163 272.001 256 272.001H288C296.837 272.001 304 279.164 304 288.001ZM304 384.001V384.001C304 392.837 296.837 400.001 288 400.001H256C247.163 400.001 240 392.837 240 384.001V384.001C240 375.164 247.163 368.001 256 368.001H288C296.837 368.001 304 375.164 304 384.001ZM280 464.001V416.001H288C305.673 416.001 320 401.674 320 384.001V384.001C320 366.328 305.673 352.001 288 352.001H280V320.001H288C305.673 320.001 320 305.674 320 288.001V288.001C320 270.328 305.673 256.001 288 256.001H280V216.001H424V352.001H416C398.327 352.001 384 366.328 384 384.001V384.001C384 401.674 398.327 416.001 416 416.001H424V464.001H280ZM464 384.001V384.001C464 392.837 456.837 400.001 448 400.001H416C407.163 400.001 400 392.837 400 384.001V384.001C400 375.164 407.163 368.001 416 368.001H448C456.837 368.001 464 375.164 464 384.001ZM560 416.001C560 442.51 538.51 464.001 512 464.001H440V416.001H448C465.673 416.001 480 401.674 480 384.001V384.001C480 366.328 465.673 352.001 448 352.001H440V216.001H560V416.001ZM440 200.001V160.001H448C465.673 160.001 480 145.674 480 128.001V128.001C480 110.328 465.673 96.001 448 96.001H440V48.001H512C538.51 48.001 560 69.491 560 96.001V200.001H440Z"/></svg>

<svg xmlns="http://www.w3.org/2000/svg" viewBox="0 0 576 512"><!--! Font Awesome Pro 6.3.0 by @fontawesome - https://fontawesome.com License - https://fontawesome.com/license (Commercial License) Copyright 2023 Fonticons, Inc. --><path d="M512 32H64c-35.35 0-64 28.65-64 64v320c0 35.35 28.65 64 64 64h448c35.35 0 64-28.65 64-64v-320C576 60.65 547.3 32 512 32zM424 48v48L416 96c-17.67 0-32 14.33-32 32s14.33 31.1 31.1 31.1L424 160v40h-144v-40l8-.0004C305.7 160 320 145.7 320 128s-14.33-32-32-32L280 96v-48H424zM464 128c0 8.837-7.163 16-15.1 16H415.1c-8.837 0-15.1-7.164-15.1-16s7.163-15.1 15.1-15.1h32C456.8 112 464 119.2 464 128zM240 128c0-8.837 7.163-15.1 15.1-15.1h32c8.837 0 15.1 7.163 15.1 15.1s-7.163 16-15.1 16H255.1C247.2 144 240 136.8 240 128zM264 48v48L256 96c-17.67 0-32 14.33-32 32s14.33 31.1 31.1 31.1L264 160v40h-112v-40l8-.0004C177.7 160 192 145.7 192 128S177.7 96 160 96L152 96v-48H264zM112 128c0-8.837 7.163-15.1 15.1-15.1h32C168.8 112 176 119.2 176 128S168.8 144 160 144h-32C119.2 144 112 136.8 112 128zM16 96c0-26.51 21.49-48 48-48h72v48L127.1 96C110.3 96 96 110.3 96 128s14.33 31.1 31.1 31.1L136 160v40H16V96zM64 464c-26.51 0-48-21.49-48-48v-200h120v40H127.1C110.3 256 96 270.3 96 288s14.33 31.1 31.1 31.1L136 320v32l-8-.0004C110.3 352 96 366.3 96 384s14.33 31.1 31.1 31.1L136 416v48H64zM176 288c0 8.837-7.163 16-15.1 16h-32C119.2 304 112 296.8 112 288s7.163-15.1 15.1-15.1h32C168.8 272 176 279.2 176 288zM176 384c0 8.837-7.163 16-15.1 16h-32C119.2 400 112 392.8 112 384s7.163-15.1 15.1-15.1h32C168.8 368 176 375.2 176 384zM152 464v-48l8-.0005C177.7 416 192 401.7 192 384s-14.33-32-31.1-32L152 352v-32l8-.0004C177.7 320 192 305.7 192 288s-14.33-32-31.1-32H152v-40h112v40H255.1C238.3 256 224 270.3 224 288s14.33 31.1 31.1 31.1L264 320v32l-8-.0004C238.3 352 224 366.3 224 384s14.33 31.1 32 31.1l8 .0005v48H152zM304 288c0 8.837-7.163 16-15.1 16H255.1C247.2 304 240 296.8 240 288s7.163-15.1 15.1-15.1h32C296.8 272 304 279.2 304 288zM304 384c0 8.837-7.163 16-15.1 16H255.1c-8.837 0-15.1-7.164-15.1-16s7.163-15.1 15.1-15.1h32C296.8 368 304 375.2 304 384zM280 464v-48L288 416c17.67 0 32-14.33 32-31.1s-14.33-32-31.1-32L280 352v-32l8-.0004C305.7 320 320 305.7 320 288s-14.33-32-31.1-32H280v-40h144v136l-8-.0004C398.3 352 384 366.3 384 384s14.33 31.1 32 31.1l8 .0005v48H280zM464 384c0 8.837-7.163 16-15.1 16H415.1c-8.837 0-15.1-7.164-15.1-16s7.163-15.1 15.1-15.1h32C456.8 368 464 375.2 464 384zM560 416c0 26.51-21.49 48-48 48h-72v-48L448 416c17.67 0 32-14.33 32-31.1s-14.33-32-31.1-32L440 352v-136h120V416zM440 200v-40l8-.0004C465.7 160 480 145.7 480 128s-14.33-32-32-32l-8 .0005v-48H512c26.51 0 48 21.49 48 48v104H440z"/></svg>
